!!!COM: Anonim
!!!CDT: [?]
!!!OTL@@LAT: Sanctus hic in carnem
!!!TXO: Latin
!!!ODT: 
!!!GTL: Hymnbook A
!!!ARL: Opactwo św. Wojciecha, Staniątki 
!!!voices:	1
**kern	**blank
*staff1	*
*I"[Alto]	*
*oclefC3	*
*clefG2	*
*k[]	*
*met(c|)	*
*M2/1	*
=-	=-
!LO:TX:Y=0:t=part of mass, with tropes	!
0d	Sanctus
1c	.
1d	.
1A	.
0f	.
0e	.
1f	.
1e	.
1c	.
1d	.
1e	.
1f	.
0d	.
0c	.
0d;	.
=-	=-
0d	Hic
1c	in
1d	carnem
1A	.
0f	.
0e	.
1f	.
1e	.
1c	.
!LO:TX:Y=0:p. 50r	!
1d	.
1e	.
1f	.
0d	.
0c	.
0d	.
0d	.
0e	.
1c	.
1d	.
1c	.
1f	.
1d	.
0c	.
1d	.
1d	.
1d	.
1c	.
1d	.
1A	.
1f	.
!LO:TX:Y=0:t=49v	!
1f	.
0e	.
1f	.
1e	.
1c	.
1d	.
1e	.
1f	.
0d	.
0c	.
0d;	.
=-	=-
0d	Sanctus
0e	.
1c	.
1d	.
1c	.
1f	.
1d	.
0c;	.
!LO:TX:Y=0:t=p.50r	!
0d	Hec
1c	est
1d	caro
1A	.
0f	.
0e	.
1f	.
1e	.
1c	.
1d	.
1e	.
1f	.
0d	.
0c	.
0d	.
0d	.
0e	.
1c	.
1d	.
1c	.
1f	.
1d	.
0c	.
1d	.
1d	.
1d	.
1c	.
1d	.
!LO:TX:Y=0:t=49v	!
1A	.
0f	.
0e	.
1f	.
1e	.
1c	.
1d	.
1e	.
1f	.
0d	.
0c	.
0d;	.
=-	=-
1f	Pleni
1e	sunt
1c	celi
1d	.
1e	.
1f	.
!LO:TX:Y=0:t=p. 50r	!
0d	.
0c	.
d0	.
0d	.
0e	.
1c	.
1d	.
1c	.
1f	.
1d	.
0c	.
=-	=-
0d	Osanna
1d	.
1c	.
1d	.
1A	.
0f	.
0e	.
1f	.
1e	.
1c	.
1d	.
1e	.
1f	.
0d	.
0c	.
0d	.
=-	=-
!LO:TC:t=p. 50v	!
0d	Benedictus
0e	.
1c	.
1d	.
1c	.
1f	.
1d	.
0c	.
0d	.
1d	.
1c	.
1d	.
1A	.
0f	.
0e	.
1f	.
1e	.
1c	.
1d	.
1e	.
1f	.
0d	.
0c	.
0d;	.
=-	=-
0d	Agnus
1c	Dei
1d	.
1A	.
0f	.
0e	.
1f	.
1e	.
1c	.
1d	.
1e	.
1f	.
0d	.
0c	.
0d	.
0d	.
0e	.
1c	.
1d	.
1c	.
1f	.
1d	.
0c	.
0d	.
1d	.
1c	.
1d	.
1A	.
0f	.
0e	.
1f	.
1e	.
1c	.
1d	.
1e	.
1f	.
0d	.
0c	.
0d;	.
=-	=-
0d	.
0e	.
1c	.
1d	.
1c	.
1f	.
1d	.
0c	.
0d	.
1c	.
1d	.
1A	.
0f	.
0e	.
1f	.
1e	.
1c	.
1d	.
1e	.
1f	.
0d	.
0c	.
0d	.
0d	.
0e	.
1c	.
1d	.
1c	.
1f	.
1d	.
0c	.
==	==
*-	*-
!!title: @{OTL}, @{GTL}: @{pag}, ed. @{ENC}
!!!pag: pp. 49v-50v
!!!GTL: Hymnbook A
!!!EFL: 
!!!YEM: Creative Commons CC/BY/NC/SA 4.0
!!!ENC: Marcin Konik
!!!END: 2015-03-07
!!!EED: Marcin Konik
!!!EEV: 
!!!ONB: Encoded in vim by Marcin Konik
!!!CharacterEncoding: utf-8
!!!RDF**kern: l=long note in original notation
!!!RDF**kern: i=editorial accidental
!!muse2ps: z14jc180F
